html/dist/img/svg/quailities2.svg

<svg width="120" height="144" viewBox="0 0 120 144" fill="none" xmlns="http://www.w3.org/2000/svg">
<path d="M36.6204 138.616V34.291C36.6204 32.9192 35.5133 31.8071 34.1475 31.8071H4.47289C3.10715 31.8071 2 32.9192 2 34.291V138.616C2 139.988 3.10715 141.1 4.47289 141.1H34.1475C35.5133 141.1 36.6204 139.988 36.6204 138.616ZM36.6204 138.616V4.48392C36.6204 3.11209 37.7276 2 39.0933 2H68.7679C70.1337 2 71.2408 3.11209 71.2408 4.48392V138.616C71.2408 139.988 70.1337 141.1 68.7679 141.1H39.0933C37.7276 141.1 36.6204 139.988 36.6204 138.616ZM2 47.4165H36.6204M2 125.483H36.6204M36.6204 21.8665H71.2408M36.6204 121.223H71.2408M78.6598 54.1646L104.003 50.09M78.6598 54.1646L92.1883 139.06C95.1199 136.974 98.5167 135.562 102.139 134.98L106.81 134.229C110.432 133.647 114.098 133.923 117.532 134.985L104.003 50.09M78.6598 54.1646L92.6568 142M104.003 50.09L118 137.925" stroke="white" stroke-width="4" stroke-linecap="round" stroke-linejoin="round"/>
</svg>

<svg width="120" height="144" viewBox="0 0 120 144" fill="none" xmlns="http://www.w3.org/2000/svg"><path d="M36.62 138.616V34.291a2.478 2.478 0 00-2.472-2.484H4.473A2.478 2.478 0 002 34.291v104.325a2.478 2.478 0 002.473 2.484h29.675a2.478 2.478 0 002.472-2.484zm0 0V4.484A2.478 2.478 0 0139.093 2h29.675a2.478 2.478 0 012.473 2.484v134.132a2.478 2.478 0 01-2.473 2.484H39.093a2.478 2.478 0 01-2.473-2.484zM2 47.416h34.62M2 125.483h34.62m0-103.617h34.62m-34.62 99.357h34.62m7.42-67.058l25.343-4.075M78.66 54.165l13.528 84.895a23.625 23.625 0 019.951-4.08l4.671-.751a23.605 23.605 0 0110.722.756L104.003 50.09M78.66 54.165L92.657 142m11.346-91.91L118 137.925" stroke="#fff" stroke-width="4" stroke-linecap="round" stroke-linejoin="round"/></svg>
